X:30
T:Croagh Lasses* (h)
B:NFID.108b("untitled highland")
030croagh
S:SD
L:1/8
M:C
R:hornpipe
Q:300
K:G
G2GD G2 (3ABc|G2G2 EDEF|G2GD G2AB|cAGE DcBA|
G2GD G2 (3ABc|G2G2 EDEF|G2GD G2AB|cAGE D2Bc||
%
d2dc d2 (3efg|d2d2 BABc|d2dc d2d2|cAGE D2Bc|
d2dc d2 (3efg|d2d2 (3cBA Bc|d2dc d2cd|cAGE DcBA||

%%%

